assets/svgs/icon-book.svg

<svg width="32" height="32" viewBox="0 0 32 32" fill="none" xmlns="http://www.w3.org/2000/svg" class="svg__icon-book">
  <path
    d="M23.8078 4.25c.4142 0 .75-.33579.75-.75s-.3358-.75-.75-.75v1.5ZM23.5 7.09722c.4142 0 .75-.33578.75-.75 0-.41421-.3358-.75-.75-.75v1.5Zm-14.0625-1.5c-.41421 0-.75.33579-.75.75 0 .41422.33579.75.75.75v-1.5ZM23.8078 2.75H8.84722v1.5H23.8078v-1.5ZM8.84722 9.94444H24.9744v-1.5H8.84722v1.5ZM25.25 10.2201V26h1.5V10.2201h-1.5ZM23.5 27.75h-15v1.5h15v-1.5ZM6.75 26V6.34722h-1.5V26h1.5Zm8.625-18.90278H23.5v-1.5h-8.125v1.5Zm-5.9375 0h5.9375v-1.5H9.4375v1.5ZM8.5 27.75c-.9665 0-1.75-.7835-1.75-1.75h-1.5c0 1.7949 1.45508 3.25 3.25 3.25v-1.5ZM25.25 26c0 .9665-.7835 1.75-1.75 1.75v1.5c1.7949 0 3.25-1.4551 3.25-3.25h-1.5Zm-.2756-16.05556c.1522 0 .2756.12346.2756.27566h1.5c0-.98067-.795-1.77566-1.7756-1.77566v1.5Zm-16.12718-1.5c-1.15826 0-2.09722-.93895-2.09722-2.09722h-1.5c0 1.98669 1.61053 3.59722 3.59722 3.59722v-1.5Zm0-5.69444C6.86053 2.75 5.25 4.36053 5.25 6.34722h1.5C6.75 5.18896 7.68896 4.25 8.84722 4.25v-1.5Z"
    fill="#0B6AB7" class="svg__fill--primary-blue-03"/>
  <path
    d="m13.2751 15.3298.3565-.5133c-.2144-.1489-.4986-.1489-.713 0l.3565.5133Zm-2.425-6.12985v-.625c-.3452 0-.625.27982-.625.625h.625Zm4.85 0h.625c0-.34518-.2798-.625-.625-.625v.625Zm-4.7548 7.74775-.3565-.5133.3565.5133Zm4.6596 0-.3565.5134.3565-.5134Zm.3565-.5133-2.3298-1.6179-.713 1.0267 2.3298 1.6179.713-1.0267Zm-3.0428-1.6179-2.3298 1.6179.713 1.0267 2.3298-1.6179-.713-1.0267Zm-1.4435 2.0814V9.19995h-1.25v7.69795h1.25Zm3.6-7.69795v7.69795h1.25V9.19995h-1.25Zm-4.225.625h4.85v-1.25h-4.85v1.25Zm-.2613 6.60945c.3742-.2599.8863.0079.8863.4635h-1.25c0 .5535.6221.8789 1.0767.5632l-.713-1.0267Zm4.6596 1.0267c.4546.3157 1.0767-.0097 1.0767-.5632h-1.25c0-.4556.512-.7234.8863-.4635l-.713 1.0267Z"
    fill="#0AA5FF" class="svg__fill--default-cyan-03" />
</svg>

<svg width="32" height="32" viewBox="0 0 32 32" fill="none" xmlns="http://www.w3.org/2000/svg" class="svg__icon-book">
<path d="M23.8078 4.25C24.222 4.25 24.5578 3.91421 24.5578 3.5C24.5578 3.08579 24.222 2.75 23.8078 2.75V4.25ZM23.5 7.09722C23.9142 7.09722 24.25 6.76144 24.25 6.34722C24.25 5.93301 23.9142 5.59722 23.5 5.59722V7.09722ZM9.4375 5.59722C9.02329 5.59722 8.6875 5.93301 8.6875 6.34722C8.6875 6.76144 9.02329 7.09722 9.4375 7.09722V5.59722ZM23.8078 2.75H8.84722V4.25H23.8078V2.75ZM8.84722 9.94444H24.9744V8.44444H8.84722V9.94444ZM25.25 10.2201V26H26.75V10.2201H25.25ZM23.5 27.75H8.5V29.25H23.5V27.75ZM6.75 26V6.34722H5.25V26H6.75ZM15.375 7.09722H23.5V5.59722H15.375V7.09722ZM9.4375 7.09722H15.375V5.59722H9.4375V7.09722ZM8.5 27.75C7.5335 27.75 6.75 26.9665 6.75 26H5.25C5.25 27.7949 6.70508 29.25 8.5 29.25V27.75ZM25.25 26C25.25 26.9665 24.4665 27.75 23.5 27.75V29.25C25.2949 29.25 26.75 27.7949 26.75 26H25.25ZM24.9744 9.94444C25.1266 9.94444 25.25 10.0679 25.25 10.2201H26.75C26.75 9.23943 25.955 8.44444 24.9744 8.44444V9.94444ZM8.84722 8.44444C7.68896 8.44444 6.75 7.50549 6.75 6.34722H5.25C5.25 8.33391 6.86053 9.94444 8.84722 9.94444V8.44444ZM8.84722 2.75C6.86053 2.75 5.25 4.36053 5.25 6.34722H6.75C6.75 5.18896 7.68896 4.25 8.84722 4.25V2.75Z" fill="#0B6AB7" class="svg__fill--primary-blue-03"/>
<path d="M13.2751 15.3298L13.6316 14.8165C13.4172 14.6676 13.133 14.6676 12.9186 14.8165L13.2751 15.3298ZM10.8501 9.19995V8.57495C10.5049 8.57495 10.2251 8.85477 10.2251 9.19995H10.8501ZM15.7001 9.19995H16.3251C16.3251 8.85477 16.0453 8.57495 15.7001 8.57495V9.19995ZM10.9453 16.9477L10.5888 16.4344L10.9453 16.9477ZM15.6049 16.9477L15.2484 17.4611L15.6049 16.9477ZM15.9614 16.4344L13.6316 14.8165L12.9186 15.8432L15.2484 17.4611L15.9614 16.4344ZM12.9186 14.8165L10.5888 16.4344L11.3018 17.4611L13.6316 15.8432L12.9186 14.8165ZM11.4751 16.8979V9.19995H10.2251V16.8979H11.4751ZM15.0751 9.19995V16.8979H16.3251V9.19995H15.0751ZM10.8501 9.82495H15.7001V8.57495H10.8501V9.82495ZM10.5888 16.4344C10.963 16.1745 11.4751 16.4423 11.4751 16.8979H10.2251C10.2251 17.4514 10.8472 17.7768 11.3018 17.4611L10.5888 16.4344ZM15.2484 17.4611C15.703 17.7768 16.3251 17.4514 16.3251 16.8979H15.0751C15.0751 16.4423 15.5871 16.1745 15.9614 16.4344L15.2484 17.4611Z" fill="#0AA5FF" class="svg__fikk--default-cyan-03"/>
</svg>
